X: 134008
T: KITTY IN THE LANE
Q: "Irish Reel."
R: Reel.
%R: reel
B: James Kerr "Merry Melodies" v.1 p.34 s.0 #8
Z: 2017 John Chambers <jc:trillian.mit.edu>
M: C
L: 1/8
K: D
|: uA |\
dAAB =c2(BA) | GEEG =c2(Bc) |\
dAAB =c2(BA) | GE=cE D2-D :|\
A |\
dcde f2(ed) | cdef g2(fe) |
dcde f2(ed) | efga fddA |\
dcde f2(ed) | cdef g2(fg) |\
afge fdec | dBAG FDD |]

%%sep 1 1 500
%%sep 1 1 500

